X:196
T:The Clocks Go Forward Tonight
C:Colin Hume, 1993
L:1/8
M:6/8
R:Jig
S:Colin Hume's website,  colinhume.com  - chords can also be printed below the stave.
Q:3/8=112
%%MIDI chordprog 45     % Pizzicato Strings
%%MIDI bassprog 32      % Acoustic Bass
%%MIDI program 71       % Clarinet
K:Dm
P:A
|: C | "F"F2C "C7"G2C | "F"A2G F2D | "C7"G2C "F"A2C | "C7"B2A GAB |\
"F"c2z "Bb"d2z | "C"ede "Dm"fef | "G7"g2d def | "C"e2d "C7"c2 :|
P:B
|: c | "Gm"d2G GAB | "Dm"A2d d2D | "A7"E2A A2E | "Dm"F2D DEF |\
"C"G2c c2G | "Dm"A2d d2e | "Gm"f2d "A7"e2^c | "Dm"d2D D2 :|

